components/Common/Svg/svgs/objC.svg

<svg
  width="67"
  height="67"
  viewBox="0 0 67 67"
  fill="none"
  xmlns="http://www.w3.org/2000/svg"
>
  <path
    d="M33.3492 66.3165C15.5311 66.3165 0.420953 51.267 0.282089 33.3362C0.251102 29.0107 1.07901 24.722 2.71781 20.7189C4.35662 16.7157 6.77373 13.0777 9.82902 10.0156C12.9044 6.8658 16.575 4.3584 20.6275 2.63905C24.6801 0.919691 29.0338 0.0226475 33.436 1.29974e-05C37.7585 -0.0038371 42.0392 0.847707 46.0312 2.50558C50.0232 4.16345 53.6476 6.59488 56.6958 9.65977C59.7948 12.6807 62.2653 16.2851 63.9649 20.2652C65.6645 24.2454 66.5596 28.5225 66.5985 32.8501C66.638 41.654 63.1914 50.1157 57.0117 56.3864C50.8321 62.6571 42.4217 66.2271 33.6182 66.3165H33.3492ZM33.4533 1.73582C29.2818 1.76026 25.1566 2.61292 21.3172 4.24433C17.4778 5.87574 14.0006 8.25341 11.0875 11.2394C8.18979 14.1363 5.89602 17.5797 4.33914 21.3698C2.78227 25.16 1.99327 29.2214 2.01789 33.3188C2.14808 50.3123 16.4685 64.5633 33.3405 64.5633H33.5662C41.9138 64.4877 49.8921 61.1101 55.7567 55.1691C61.6213 49.2281 64.8952 41.2068 64.8627 32.8588C64.8238 28.7589 63.974 24.7072 62.3623 20.9372C60.7506 17.1671 58.4089 13.7533 55.472 10.8922C52.5903 7.98495 49.1602 5.67861 45.3805 4.10685C41.6008 2.53509 37.5468 1.72917 33.4533 1.73582Z"
    fill="#6A6A6A"
  ></path>
  <path
    d="M7.72266 42.8569V23.4854H12.4354V25.2212H9.93581V41.1559H12.4354V42.8917L7.72266 42.8569Z"
    fill="#6A6A6A"
  ></path>
  <path
    d="M23.7144 32.9802C23.7144 36.5125 21.5707 38.5261 18.6632 38.5261C15.7557 38.5261 13.8203 36.2609 13.8203 33.1624C13.8203 29.9252 15.8512 27.6426 18.8194 27.6426C21.7877 27.6426 23.7144 30.0206 23.7144 32.9802ZM15.8512 33.1364C15.8512 35.2801 16.9274 36.9812 18.776 36.9812C20.6247 36.9812 21.6835 35.2454 21.6835 33.0583C21.6835 31.0708 20.7028 29.1961 18.776 29.1961C16.8493 29.1961 15.8338 31.01 15.8338 33.1798L15.8512 33.1364Z"
    fill="#6A6A6A"
  ></path>
  <path
    d="M25.3477 28.0075C26.2706 27.8481 27.2057 27.7697 28.1423 27.7732C29.1944 27.6704 30.252 27.9044 31.1626 28.4414C31.504 28.6425 31.7854 28.9312 31.9777 29.2776C32.1699 29.624 32.2661 30.0155 32.2562 30.4116C32.2437 30.9263 32.0692 31.4239 31.7576 31.8337C31.4459 32.2435 31.013 32.5446 30.5204 32.6942C31.1207 32.8163 31.6604 33.1422 32.0479 33.6168C32.4355 34.0913 32.647 34.6852 32.6467 35.2979C32.6533 35.7129 32.5653 36.124 32.3893 36.4999C32.2134 36.8758 31.9541 37.2068 31.6313 37.4676C30.8849 38.1272 29.6438 38.4484 27.7257 38.4484C26.9367 38.4522 26.1482 38.4059 25.365 38.3095L25.3477 28.0075ZM27.257 32.1647H28.2378C29.5657 32.1647 30.3121 31.5399 30.3121 30.6459C30.3121 29.752 29.5657 29.2052 28.3419 29.2052C27.9757 29.1927 27.6091 29.2189 27.2484 29.2833L27.257 32.1647ZM27.257 37.0076C27.5944 37.0424 27.9334 37.0569 28.2725 37.051C29.5049 37.051 30.5985 36.5824 30.5985 35.3152C30.5985 34.0481 29.5396 33.5794 28.2117 33.5794H27.257V37.0076Z"
    fill="#6A6A6A"
  ></path>
  <path
    d="M36.4382 27.8687H38.3563V34.7164C38.3563 37.6239 36.9503 38.5959 34.8847 38.5959C34.3323 38.5914 33.7842 38.4976 33.2617 38.3182L33.4961 36.7733C33.8812 36.8936 34.2816 36.9579 34.6851 36.9643C35.7786 36.9643 36.4209 36.4609 36.4209 34.6383L36.4382 27.8687Z"
    fill="#6A6A6A"
  ></path>
  <path
    d="M43.8166 33.5703V34.8982H39.8242V33.5703H43.8166Z"
    fill="#6A6A6A"
  ></path>
  <path
    d="M53.1392 38.0841C52.2763 38.4282 51.351 38.5878 50.4227 38.5528C47.0813 38.5528 45.0504 36.4611 45.0504 33.2586C45.0109 32.5124 45.1298 31.7663 45.3993 31.0694C45.6688 30.3724 46.0828 29.7404 46.614 29.2149C47.1452 28.6894 47.7817 28.2824 48.4815 28.0204C49.1813 27.7585 49.9287 27.6477 50.6744 27.6953C51.5662 27.6584 52.4551 27.8184 53.2781 28.164L52.8528 29.6915C52.2 29.4137 51.4966 29.2747 50.7872 29.2836C48.6435 29.2836 47.0986 30.6288 47.0986 33.1631C47.0986 35.4717 48.4612 36.9645 50.7698 36.9645C51.4861 36.9749 52.1972 36.8421 52.8615 36.574L53.1392 38.0841Z"
    fill="#6A6A6A"
  ></path>
  <path
    d="M59.1619 23.4331V42.8568H54.4492V41.121H56.9488V25.1689H54.4492V23.4331H59.1619Z"
    fill="#6A6A6A"
  ></path>
</svg>

<svg width="67" height="67" viewBox="0 0 67 67" fill="none" xmlns="http://www.w3.org/2000/svg"><path d="M33.35 66.317C15.53 66.317.42 51.267.281 33.337A32.685 32.685 0 0 1 9.83 10.015 33.233 33.233 0 0 1 33.436 0a32.764 32.764 0 0 1 23.26 9.66 32.798 32.798 0 0 1 9.903 23.19 33.318 33.318 0 0 1-32.98 33.467h-.27Zm.103-64.581a31.505 31.505 0 0 0-22.366 9.503 30.957 30.957 0 0 0-9.07 22.08c.131 16.993 14.451 31.244 31.323 31.244h.226A31.583 31.583 0 0 0 64.863 32.86a31.078 31.078 0 0 0-9.391-21.967 30.931 30.931 0 0 0-22.019-9.156Z" fill="#6A6A6A"/><path d="M7.723 42.857V23.485h4.712v1.736h-2.5v15.935h2.5v1.736l-4.712-.035ZM23.714 32.98c0 3.533-2.143 5.546-5.05 5.546-2.908 0-4.844-2.265-4.844-5.364 0-3.237 2.031-5.52 5-5.52 2.968 0 4.894 2.379 4.894 5.338Zm-7.863.156c0 2.144 1.076 3.845 2.925 3.845 1.849 0 2.907-1.736 2.907-3.923 0-1.987-.98-3.862-2.907-3.862s-2.942 1.814-2.942 3.984l.017-.044ZM25.348 28.008c.923-.16 1.858-.238 2.794-.235a4.99 4.99 0 0 1 3.02.668 2.222 2.222 0 0 1 1.094 1.97 2.448 2.448 0 0 1-1.736 2.283 2.655 2.655 0 0 1 2.127 2.604 2.732 2.732 0 0 1-1.016 2.17c-.746.66-1.987.98-3.905.98a18.591 18.591 0 0 1-2.361-.139l-.017-10.301Zm1.909 4.157h.98c1.329 0 2.075-.625 2.075-1.52 0-.893-.746-1.44-1.97-1.44a5.21 5.21 0 0 0-1.094.078l.009 2.882Zm0 4.843c.337.034.676.049 1.015.043 1.233 0 2.327-.469 2.327-1.736s-1.06-1.736-2.387-1.736h-.955v3.429ZM36.438 27.869h1.918v6.847c0 2.908-1.406 3.88-3.471 3.88a5.127 5.127 0 0 1-1.623-.278l.234-1.545c.385.12.786.185 1.19.191 1.093 0 1.735-.503 1.735-2.326l.017-6.77ZM43.817 33.57v1.328h-3.993V33.57h3.993ZM53.14 38.084a6.657 6.657 0 0 1-2.717.469c-3.342 0-5.373-2.092-5.373-5.294a5.294 5.294 0 0 1 5.624-5.564 6.076 6.076 0 0 1 2.604.469l-.425 1.527a5.111 5.111 0 0 0-2.066-.407c-2.143 0-3.688 1.345-3.688 3.88 0 2.308 1.362 3.8 3.67 3.8a5.38 5.38 0 0 0 2.093-.39l.277 1.51ZM59.162 23.433v19.424h-4.713V41.12h2.5V25.169h-2.5v-1.736h4.713Z" fill="#6A6A6A"/></svg>
